svg/SJJB-OpenStreetMapIcons/place_of_worship/shinto3.svg

<?xml version="1.0" encoding="UTF-8" standalone="no"?>
<!-- Created with Inkscape (http://www.inkscape.org/) -->
<svg
   xmlns:dc="http://purl.org/dc/elements/1.1/"
   xmlns:cc="http://creativecommons.org/ns#"
   xmlns:rdf="http://www.w3.org/1999/02/22-rdf-syntax-ns#"
   xmlns:svg="http://www.w3.org/2000/svg"
   xmlns="http://www.w3.org/2000/svg"
   xmlns:sodipodi="http://sodipodi.sourceforge.net/DTD/sodipodi-0.dtd"
   xmlns:inkscape="http://www.inkscape.org/namespaces/inkscape"
   version="1.0"
   width="580"
   height="580"
   id="svg2"
   sodipodi:version="0.32"
   inkscape:version="0.46"
   sodipodi:docname="place_of_worship_shinto3.svg"
   sodipodi:docbase="s:\Data\FacilityIcons"
   inkscape:output_extension="org.inkscape.output.svg.inkscape">
  <metadata
     id="metadata2975">
    <rdf:RDF>
      <cc:Work
         rdf:about="">
        <dc:format>image/svg+xml</dc:format>
        <dc:type
           rdf:resource="http://purl.org/dc/dcmitype/StillImage" />
        <cc:license
           rdf:resource="http://web.resource.org/cc/PublicDomain" />
        <dc:language>en</dc:language>
      </cc:Work>
    </rdf:RDF>
  </metadata>
  <sodipodi:namedview
     inkscape:window-height="1003"
     inkscape:window-width="1400"
     inkscape:pageshadow="2"
     inkscape:pageopacity="0.0"
     guidetolerance="10.0"
     gridtolerance="10.0"
     objecttolerance="10.0"
     borderopacity="1.0"
     bordercolor="#666666"
     pagecolor="#ffffff"
     id="base"
     inkscape:zoom="0.65172414"
     inkscape:cx="-57.954519"
     inkscape:cy="172.10413"
     inkscape:window-x="0"
     inkscape:window-y="20"
     inkscape:current-layer="svg2"
     showgrid="false" />
  <defs
     id="defs4">
    <inkscape:perspective
       sodipodi:type="inkscape:persp3d"
       inkscape:vp_x="0 : 290 : 1"
       inkscape:vp_y="0 : 1000 : 0"
       inkscape:vp_z="580 : 290 : 1"
       inkscape:persp3d-origin="290 : 193.33333 : 1"
       id="perspective2441" />
    <inkscape:perspective
       id="perspective2466"
       inkscape:persp3d-origin="372.04724 : 350.78739 : 1"
       inkscape:vp_z="744.09448 : 526.18109 : 1"
       inkscape:vp_y="0 : 1000 : 0"
       inkscape:vp_x="0 : 526.18109 : 1"
       sodipodi:type="inkscape:persp3d" />
    <inkscape:perspective
       id="perspective3333"
       inkscape:persp3d-origin="372.04724 : 350.78739 : 1"
       inkscape:vp_z="744.09448 : 526.18109 : 1"
       inkscape:vp_y="0 : 1000 : 0"
       inkscape:vp_x="0 : 526.18109 : 1"
       sodipodi:type="inkscape:persp3d" />
    <inkscape:perspective
       id="perspective3401"
       inkscape:persp3d-origin="372.04724 : 350.78739 : 1"
       inkscape:vp_z="744.09448 : 526.18109 : 1"
       inkscape:vp_y="0 : 1000 : 0"
       inkscape:vp_x="0 : 526.18109 : 1"
       sodipodi:type="inkscape:persp3d" />
    <inkscape:perspective
       id="perspective3464"
       inkscape:persp3d-origin="372.04724 : 350.78739 : 1"
       inkscape:vp_z="744.09448 : 526.18109 : 1"
       inkscape:vp_y="0 : 1000 : 0"
       inkscape:vp_x="0 : 526.18109 : 1"
       sodipodi:type="inkscape:persp3d" />
    <inkscape:perspective
       id="perspective3581"
       inkscape:persp3d-origin="225 : 150 : 1"
       inkscape:vp_z="450 : 225 : 1"
       inkscape:vp_y="0 : 1000 : 0"
       inkscape:vp_x="0 : 225 : 1"
       sodipodi:type="inkscape:persp3d" />
    <inkscape:perspective
       id="perspective4312"
       inkscape:persp3d-origin="225 : 150 : 1"
       inkscape:vp_z="450 : 225 : 1"
       inkscape:vp_y="0 : 1000 : 0"
       inkscape:vp_x="0 : 225 : 1"
       sodipodi:type="inkscape:persp3d" />
  </defs>
  <g
     id="g1327">
    <path
       d="M 66.275,1.768 C 24.94,1.768 1.704,23.139 1.704,66.804 L 1.704,516.927 C 1.704,557.771 22.599,579.156 63.896,579.156 L 515.92,579.156 C 557.227,579.156 578.149,558.841 578.149,516.927 L 578.149,66.804 C 578.149,24.203 557.227,1.768 514.628,1.768 C 514.624,1.768 66.133,1.625 66.275,1.768 z "
       style="fill:#111;stroke:#eee;stroke-width:3.40799999"
       id="path1329" />
  </g>
  <path
     sodipodi:nodetypes="cssscccsssssssssssssssssssssssssssscccscccssssscccsssccccssccccscccccc"
     id="path1873"
     d="M 189.8427,540.72862 C 187.27639,535.93343 186.14419,501.63085 186.53951,440.64971 C 187.05306,361.42532 186.29112,346.22325 181.32538,336.62054 C 173.6911,321.8575 173.74126,321.66259 186.30046,317.28446 C 196.4342,313.75177 197.09114,312.37816 197.09114,294.71996 L 197.09114,275.91715 L 162.02144,275.08895 C 142.7331,274.63344 125.83041,273.13682 124.45989,271.76309 C 121.17247,268.4679 119.68359,233.84134 122.62467,229.08251 C 124.03131,226.80659 135.30869,226.03638 151.7639,227.09239 C 174.30078,228.53874 179.96367,227.73178 187.05424,222.06357 C 201.4107,210.58712 196.06309,203.68624 170.81345,201.10543 C 122.28373,196.14509 122.48635,196.21848 119.94711,182.6833 C 118.67463,175.90046 116.05358,170.35085 114.12252,170.35085 C 112.19145,170.35085 104.13474,166.06476 96.218748,160.82622 C 85.005504,153.40561 80.951055,147.82669 77.865205,135.57164 C 75.686744,126.92019 69.193137,113.33807 63.434978,105.38915 C 57.67682,97.440235 53.926636,89.38158 55.101241,87.481017 C 58.352509,82.220385 73.849519,83.350854 86.227154,89.751593 C 99.985334,96.866208 128.65961,105.50543 144.09415,107.18623 C 150.49214,107.88298 174.34079,111.22611 197.09114,114.61543 C 231.21085,119.69855 255.77929,120.4698 337.3699,119.01886 C 391.77289,118.05144 443.56814,115.51911 452.47044,113.39156 C 461.37274,111.26396 478.96539,107.89514 491.5652,105.90524 C 504.16501,103.91533 524.6396,97.530157 537.06425,91.715966 C 567.24556,77.59241 576.45137,85.602186 560.36373,111.9883 C 556.41458,118.46554 553.18341,127.56636 553.18341,132.21232 C 553.18341,140.51561 525.18872,170.35085 517.39772,170.35085 C 515.43174,170.35085 512.47359,175.55943 510.82398,181.9255 C 507.52015,194.6754 500.17246,198.16886 475.40063,198.76745 C 453.38822,199.29936 438.08288,203.06171 438.08288,207.94087 C 438.08288,210.31613 441.80403,215.75543 446.35213,220.02814 C 453.95519,227.17084 456.63564,227.54728 479.62337,224.70086 C 494.98951,222.79818 506.2804,222.92349 508.9197,225.02602 C 513.24802,228.47409 511.59135,262.85614 506.83903,268.20666 C 505.59912,269.60264 488.73466,271.01275 469.36245,271.34021 L 434.14028,271.93552 L 435.21234,290.38338 C 436.21677,307.66689 437.02237,309.06968 447.97699,312.61058 C 466.86339,318.71529 468.46083,322.56041 457.51483,335.56896 L 447.76642,347.1543 L 449.84173,439.53875 C 451.1278,496.78944 450.58639,534.30091 448.41811,538.17539 C 444.10468,545.88304 412.34606,547.02721 406.26023,539.69426 C 403.78312,536.70952 401.44655,499.83587 399.93532,439.88051 C 398.6172,387.58629 395.99032,341.79377 394.09778,338.11938 C 391.81224,333.68194 391.97652,330.11898 394.58697,327.50855 C 396.74851,325.34698 398.51854,312.1673 398.52034,298.22035 L 398.52365,272.86226 L 316.71689,274.03539 C 271.72322,274.6806 234.35076,275.7679 233.66706,276.45164 C 232.98336,277.13534 231.5442,335.68637 230.46898,406.56508 C 229.39377,477.44372 227.05203,538.26791 225.26514,541.72994 C 220.41385,551.12915 195.02479,550.41141 189.8427,540.72862 z M 294.2072,217.11043 L 294.2072,202.72287 L 267.40924,202.72287 C 246.21678,202.72287 239.91467,203.96766 237.28099,208.6738 C 234.78061,213.14172 236.3047,216.69886 243.39682,222.94769 C 250.88511,229.54565 257.12954,231.29424 273.52506,231.38435 L 294.2072,231.49801 L 294.2072,217.11043 z M 387.68528,221.7064 C 391.66448,218.29934 394.92016,212.63422 394.92016,209.11729 C 394.92016,203.5577 391.39809,202.72287 367.94349,202.72287 L 340.96681,202.72287 L 340.96681,215.31201 L 340.96681,227.90111 L 360.70859,227.90111 C 374.19057,227.90111 382.74444,225.93685 387.68528,221.7064 z"
     style="opacity:0.25;fill:#ffffff" />
  <path
     style="fill:#ffffff"
     d="M 149.8427,500.72862 C 147.27639,495.93343 146.14419,461.63085 146.53951,400.64971 C 147.05306,321.42532 146.29112,306.22325 141.32538,296.62054 C 133.6911,281.8575 133.74126,281.66259 146.30046,277.28446 C 156.4342,273.75177 157.09114,272.37816 157.09114,254.71996 L 157.09114,235.91715 L 122.02144,235.08895 C 102.7331,234.63344 85.83041,233.13682 84.45989,231.76309 C 81.172471,228.4679 79.683594,193.84134 82.62467,189.08251 C 84.03131,186.80659 95.30869,186.03638 111.7639,187.09239 C 134.30078,188.53874 139.96367,187.73178 147.05424,182.06357 C 161.4107,170.58712 156.06309,163.68624 130.81345,161.10543 C 82.28373,156.14509 82.48635,156.21848 79.947113,142.6833 C 78.67463,135.90046 76.053577,130.35085 74.122518,130.35085 C 72.191447,130.35085 64.134745,126.06476 56.218748,120.82622 C 45.005504,113.40561 40.951055,107.82669 37.865205,95.57164 C 35.686744,86.92019 29.193137,73.338073 23.434978,65.389148 C 17.67682,57.440235 13.926636,49.38158 15.101241,47.481017 C 18.352509,42.220385 33.849519,43.350854 46.227154,49.751593 C 59.985334,56.866208 88.65961,65.505433 104.09415,67.186228 C 110.49214,67.882979 134.34079,71.226113 157.09114,74.615428 C 191.21085,79.698555 215.77929,80.469804 297.3699,79.018863 C 351.77289,78.051436 403.56814,75.519113 412.47044,73.391558 C 421.37274,71.263958 438.96539,67.895144 451.5652,65.905238 C 464.16501,63.915332 484.6396,57.530157 497.06425,51.715966 C 527.24556,37.59241 536.45137,45.602186 520.36373,71.988298 C 516.41458,78.465541 513.18341,87.56636 513.18341,92.21232 C 513.18341,100.51561 485.18872,130.35085 477.39772,130.35085 C 475.43174,130.35085 472.47359,135.55943 470.82398,141.9255 C 467.52015,154.6754 460.17246,158.16886 435.40063,158.76745 C 413.38822,159.29936 398.08288,163.06171 398.08288,167.94087 C 398.08288,170.31613 401.80403,175.75543 406.35213,180.02814 C 413.95519,187.17084 416.63564,187.54728 439.62337,184.70086 C 454.98951,182.79818 466.2804,182.92349 468.9197,185.02602 C 473.24802,188.47409 471.59135,222.85614 466.83903,228.20666 C 465.59912,229.60264 448.73466,231.01275 429.36245,231.34021 L 394.14028,231.93552 L 395.21234,250.38338 C 396.21677,267.66689 397.02237,269.06968 407.97699,272.61058 C 426.86339,278.71529 428.46083,282.56041 417.51483,295.56896 L 407.76642,307.1543 L 409.84173,399.53875 C 411.1278,456.78944 410.58639,494.30091 408.41811,498.17539 C 404.10468,505.88304 372.34606,507.02721 366.26023,499.69426 C 363.78312,496.70952 361.44655,459.83587 359.93532,399.88051 C 358.6172,347.58629 355.99032,301.79377 354.09778,298.11938 C 351.81224,293.68194 351.97652,290.11898 354.58697,287.50855 C 356.74851,285.34698 358.51854,272.1673 358.52034,258.22035 L 358.52365,232.86226 L 276.71689,234.03539 C 231.72322,234.6806 194.35076,235.7679 193.66706,236.45164 C 192.98336,237.13534 191.5442,295.68637 190.46898,366.56508 C 189.39377,437.44372 187.05203,498.26791 185.26514,501.72994 C 180.41385,511.12915 155.02479,510.41141 149.8427,500.72862 z M 254.2072,177.11043 L 254.2072,162.72287 L 227.40924,162.72287 C 206.21678,162.72287 199.91467,163.96766 197.28099,168.6738 C 194.78061,173.14172 196.3047,176.69886 203.39682,182.94769 C 210.88511,189.54565 217.12954,191.29424 233.52506,191.38435 L 254.2072,191.49801 L 254.2072,177.11043 z M 347.68528,181.7064 C 351.66448,178.29934 354.92016,172.63422 354.92016,169.11729 C 354.92016,163.5577 351.39809,162.72287 327.94349,162.72287 L 300.96681,162.72287 L 300.96681,175.31201 L 300.96681,187.90111 L 320.70859,187.90111 C 334.19057,187.90111 342.74444,185.93685 347.68528,181.7064 z"
     id="path6923"
     sodipodi:nodetypes="cssscccsssssssssssssssssssssssssssscccscccssssscccsssccccssccccscccccc" />
</svg>

<svg xmlns="http://www.w3.org/2000/svg" viewBox="0 0 580 580"><path d="m66.28 1.768c-41.34 0-64.57 21.371-64.57 65.04v450.12c0 40.844 20.895 62.23 62.19 62.23h452.02c41.31 0 62.23-20.315 62.23-62.23v-450.12c0-42.601-20.922-65.04-63.52-65.04-.004 0-448.5-.143-448.35 0z" fill="#111" stroke="#eee" stroke-width="3.408"/><g fill="#fff"><path d="m189.84 540.73c-2.566-4.795-3.699-39.1-3.303-100.08.514-79.22-.248-94.43-5.214-104.03-7.634-14.763-7.584-14.958 4.975-19.336 10.134-3.533 10.791-4.906 10.791-22.565v-18.803l-35.07-.828c-19.288-.456-36.19-1.952-37.562-3.326-3.287-3.295-4.776-37.922-1.835-42.681 1.407-2.276 12.684-3.046 29.14-1.99 22.537 1.446 28.2.639 35.29-5.03 14.356-11.476 9.01-18.377-16.241-20.958-48.53-4.96-48.33-4.887-50.866-18.422-1.272-6.783-3.894-12.332-5.825-12.332-1.931 0-9.988-4.286-17.904-9.525-11.213-7.421-15.268-13-18.354-25.25-2.178-8.651-8.672-22.23-14.43-30.18-5.758-7.949-9.508-16.01-8.334-17.908 3.251-5.261 18.748-4.13 31.13 2.271 13.758 7.115 42.43 15.754 57.867 17.435 6.398.697 30.25 4.04 52.997 7.429 34.12 5.083 58.688 5.854 140.28 4.403 54.4-.967 106.2-3.5 115.1-5.627 8.902-2.128 26.495-5.496 39.09-7.486 12.6-1.99 33.07-8.375 45.499-14.189 30.18-14.12 39.39-6.114 23.299 20.272-3.949 6.477-7.18 15.578-7.18 20.224 0 8.303-27.995 38.14-35.786 38.14-1.966 0-4.924 5.209-6.574 11.575-3.304 12.75-10.652 16.243-35.423 16.842-22.01.532-37.32 4.294-37.32 9.173 0 2.375 3.721 7.815 8.269 12.09 7.603 7.143 10.284 7.519 33.27 4.673 15.366-1.903 26.657-1.777 29.3.325 4.328 3.448 2.672 37.83-2.081 43.18-1.24 1.396-18.1 2.806-37.477 3.134l-35.22.595 1.072 18.448c1 17.284 1.81 18.686 12.765 22.23 18.886 6.105 20.484 9.95 9.538 22.958l-9.748 11.585 2.075 92.38c1.286 57.25.745 94.76-1.424 98.64-4.313 7.708-36.07 8.852-42.16 1.519-2.477-2.985-4.814-39.858-6.325-99.81-1.318-52.29-3.945-98.09-5.838-101.76-2.286-4.437-2.121-8 .489-10.611 2.162-2.162 3.932-15.341 3.933-29.29l.003-25.358-81.81 1.173c-44.994.645-82.37 1.733-83.05 2.416-.684.684-2.123 59.23-3.198 130.11-1.075 70.879-3.417 131.7-5.204 135.16-4.851 9.399-30.24 8.681-35.422-1m104.36-323.62v-14.388h-26.798c-21.19 0-27.495 1.245-30.13 5.951-2.5 4.468-.976 8.03 6.116 14.274 7.488 6.598 13.733 8.347 30.13 8.437l20.682.114v-14.388m93.48 4.596c3.979-3.407 7.235-9.07 7.235-12.589 0-5.56-3.522-6.394-26.977-6.394h-26.977v12.589 12.589h19.742c13.482 0 22.04-1.964 26.977-6.195" opacity=".25"/><path d="m149.84 500.73c-2.566-4.795-3.699-39.1-3.303-100.08.514-79.22-.248-94.43-5.214-104.03-7.634-14.763-7.584-14.958 4.975-19.336 10.134-3.533 10.791-4.906 10.791-22.565v-18.803l-35.07-.828c-19.288-.456-36.19-1.952-37.562-3.326-3.287-3.295-4.776-37.922-1.835-42.681 1.407-2.276 12.684-3.046 29.14-1.99 22.537 1.446 28.2.639 35.29-5.03 14.356-11.476 9.01-18.377-16.241-20.958-48.53-4.96-48.33-4.887-50.866-18.422-1.272-6.783-3.894-12.332-5.825-12.332-1.931 0-9.988-4.286-17.904-9.525-11.213-7.421-15.268-13-18.354-25.25-2.178-8.651-8.672-22.23-14.43-30.18-5.758-7.949-9.508-16.01-8.334-17.908 3.251-5.261 18.748-4.13 31.13 2.271 13.758 7.115 42.43 15.754 57.867 17.435 6.398.697 30.25 4.04 52.997 7.429 34.12 5.083 58.688 5.854 140.28 4.403 54.4-.967 106.2-3.5 115.1-5.627 8.902-2.128 26.495-5.496 39.09-7.486 12.6-1.99 33.07-8.375 45.499-14.189 30.18-14.12 39.39-6.114 23.299 20.272-3.949 6.477-7.18 15.578-7.18 20.224 0 8.303-27.995 38.14-35.786 38.14-1.966 0-4.924 5.209-6.574 11.575-3.304 12.75-10.652 16.243-35.423 16.842-22.01.532-37.32 4.294-37.32 9.173 0 2.375 3.721 7.815 8.269 12.09 7.603 7.143 10.284 7.519 33.27 4.673 15.366-1.903 26.657-1.777 29.3.325 4.328 3.448 2.672 37.83-2.081 43.18-1.24 1.396-18.1 2.806-37.477 3.134l-35.22.595 1.072 18.448c1 17.284 1.81 18.686 12.765 22.23 18.886 6.105 20.484 9.95 9.538 22.958l-9.748 11.585 2.075 92.38c1.286 57.25.745 94.76-1.424 98.64-4.313 7.708-36.07 8.852-42.16 1.519-2.477-2.985-4.814-39.858-6.325-99.81-1.318-52.29-3.945-98.09-5.838-101.76-2.286-4.437-2.121-8 .489-10.611 2.162-2.162 3.932-15.341 3.933-29.29l.003-25.358-81.81 1.173c-44.994.645-82.37 1.733-83.05 2.416-.684.684-2.123 59.23-3.198 130.11-1.075 70.879-3.417 131.7-5.204 135.16-4.851 9.399-30.24 8.681-35.422-1m104.36-323.62v-14.388h-26.798c-21.19 0-27.495 1.245-30.13 5.951-2.5 4.468-.976 8.03 6.116 14.274 7.488 6.598 13.733 8.347 30.13 8.437l20.682.114v-14.388m93.48 4.596c3.979-3.407 7.235-9.07 7.235-12.589 0-5.56-3.522-6.394-26.977-6.394h-26.977v12.589 12.589h19.742c13.482 0 22.04-1.964 26.977-6.195"/></g></svg>
